images/icon/heart.svg

<svg width="16" height="16" viewBox="0 0 16 16" fill="none" xmlns="http://www.w3.org/2000/svg"><path d="M13.8909 2.99447a3.666639 3.666639 0 0 0-1.1898-.79528c-.4449-.18437-.9219-.27927-1.4035-.27927-.4817 0-.9586.0949-1.40361.27927a3.666831 3.666831 0 0 0-1.18977.79528l-.70666.70667-.70667-.70667c-.68779-.68779-1.62064-1.07419-2.59333-1.07419-.97269 0-1.90554.3864-2.59334 1.07419-.68779.6878-1.07419 1.62065-1.07419 2.59334 0 .97268.3864 1.90553 1.07419 2.59333l.70667.70667 5.18667 5.18669 5.18664-5.18669.7067-.70667c.3407-.3405.6109-.74479.7953-1.18976.1843-.44498.2792-.92192.2792-1.40357 0-.48166-.0949-.9586-.2792-1.40357-.1844-.44498-.4546-.84926-.7953-1.18977Z" fill="#2D3440"/></svg>

<svg width="16" height="16" viewBox="0 0 16 16" fill="none" xmlns="http://www.w3.org/2000/svg">
<g id="Heart-fill">
<path id="Vector" d="M13.8909 2.99447C13.5504 2.65381 13.1461 2.38357 12.7011 2.19919C12.2562 2.01482 11.7792 1.91992 11.2976 1.91992C10.8159 1.91992 10.339 2.01482 9.89399 2.19919C9.44901 2.38357 9.04473 2.65381 8.70422 2.99447L7.99756 3.70114L7.29089 2.99447C6.6031 2.30668 5.67025 1.92028 4.69756 1.92028C3.72487 1.92028 2.79202 2.30668 2.10422 2.99447C1.41643 3.68227 1.03003 4.61512 1.03003 5.58781C1.03003 6.56049 1.41643 7.49334 2.10422 8.18114L2.81089 8.88781L7.99756 14.0745L13.1842 8.88781L13.8909 8.18114C14.2316 7.84064 14.5018 7.43635 14.6862 6.99138C14.8705 6.5464 14.9654 6.06946 14.9654 5.58781C14.9654 5.10615 14.8705 4.62921 14.6862 4.18424C14.5018 3.73926 14.2316 3.33498 13.8909 2.99447Z" fill="#2D3440"/>
</g>
</svg>
